X: 1
T: String Quartet in D Major opus 17 no 6 mvt 1
C: Franz Joseph Haydn
%%abc-version 2.0
%%abcx-abcm2ps-target-version 5.9.1 (29 Sep 2008)
%%abc-creator hum2abc beta
%%abcx-conversion-date 2021/02/14 14:38:34
%%abc-copyright Copyright (c) 1994, 2000 Center for Computer Assisted Research in the Humanities
%%abc-edited-by Frances Bennion
%%abcx-initial-encoding-date 1997/04/15
%%gracespace 0 6 6
%%humdrum-veritas 3916806920
%%humdrum-veritas-data 4248898765
%%linebreak <none>
%%barnumbers 0
L: 1/8
M: 6/8
N: Derived from op17n6-01.krn
Q: "Presto" 3/8=88
%%staves [1 2 3 4]
V: 1
V: 2
V: 3 clef=alto
V: 4 clef=bass
K: D
[V:1]z4 zA [I:setbarnb1]|
[V:2]z4 zz |
[V:3]z4 zz |
[V:4]z4 zz |
[V:1]FDA GEA |
[V:2]D2z E2z |
[V:3]A,2z A,2z |
[V:4]D,2z C,2z |
[V:1]FDB A2d |
[V:2]D2G Fz2 |
[V:3]A,2z3 B, |
[V:4]D,2z3 B, |
[V:1]dcB ADB |
[V:2]D6 |
[V:3]B,A,G, F,2G, |
[V:4]B,A,G, F,2G, |
[V:1]A2G F2a |
[V:2]CDE F2z |
[V:3]A,B,C D2z |
[V:4]A,B,C D2z |
[V:1]fda gea |
[V:2]d2z e2z |
[V:3]A2z A2z |
[V:4]D2z C2z |
[V:1]fdb a2d' |
[V:2]d2g f2B |
[V:3]A2z4 |
[V:4]D2z4 |
[V:1]d'c'b adb |
[V:2]BAG F2G |
[V:3]D6- |
[V:4]D,2z4 |
[V:1]bag fg/a/b/c'/ |
[V:2]GFE D2z |
[V:3]D6 |
[V:4]z6 |
[V:1]d'c'b adb |
[V:2]BAG F2G |
[V:3]D6- |
[V:4]D,2z4 |
[V:1]bag fg/a/b/c'/ |
[V:2]GFE D2z |
[V:3]D6 |
[V:4]z6 |
[V:1]d'3 ^G3 |
[V:2]F3 D3 |
[V:3]D3 B,3 |
[V:4]B,3 E,3 |
[V:1]A6- |
[V:2]CA,F EA,D |
[V:3]A,2D CA,F |
[V:4]A,,6- |
[V:1]A6- |
[V:2]CA,F EA,D |
[V:3]EA,D CA,F |
[V:4]A,,6- |
[V:1]AAA A2A |
[V:2]CCC C2z |
[V:3]EEE E2z |
[V:4]A,,A,,A,, A,,2z |
[V:1]FDA GEA |
[V:2]D2z E2z |
[V:3]A,2z A,2z |
[V:4]D,2z C,2z |
[V:1]FDB A2z |
[V:2]D2G F2z |
[V:3]A,2z3 B |
[V:4]D,2z3 G, |
[V:1]z4 zb |
[V:2]z4 zg |
[V:3]AFB A2z |
[V:4]F,D,G, F,2z |
[V:1]afb a2z |
[V:2]fdg f2z |
[V:3]z4 zB |
[V:4]z4 zG, |
[V:1]z2b az2 |
[V:2]z2g fz2 |
[V:3]Az4 B |
[V:4]F,z4 G, |
[V:1]z2b aza |
[V:2]z2g fzD |
[V:3]Az4 A, |
[V:4]F,z4 F, |
[V:1]agf eee |
[V:2]D6 |
[V:3]B,6 |
[V:4]G,3 ^G,3 |
[V:1]efe eaa |
[V:2]C4 DE |
[V:3]C4 A,A, |
[V:4]A,4 F,F, |
[V:1]agf fed |
[V:2]D3 G3 |
[V:3]B,3 C3 |
[V:4]G,3 A,3 |
[V:1]d4 aa |
[V:2]F4 AA |
[V:3]D4 DD |
[V:4]D4 F,F, |
[V:1]agf eee |
[V:2]B6 |
[V:3]D6 |
[V:4]G,3 ^G,3 |
[V:1]efe e3- |
[V:2]E4 EE |
[V:3]C4 CC |
[V:4]A,4 A,A, |
[V:1]efe e3- |
[V:2]^G4 GG |
[V:3]D4 DD |
[V:4]B,4 B,B, |
[V:1]efe e3- |
[V:2]A4 AA |
[V:3]E4 EE |
[V:4]C4 CC |
[V:1]efe e3 |
[V:2]^G4 GG |
[V:3]D4 DD |
[V:4]B,4 B,B, |
[V:1]=c'4 ba |
[V:2]A[=CE][EC] [EC][CE][CE] |
[V:3]=CA,A, A,B,C |
[V:4]A,A,A, A,A,A, |
[V:1]^ge'e' e'3 |
[V:2][ED][DE][ED] [ED][ED][ED] |
[V:3]^G,G,G, G,G,G, |
[V:4]B,B,B, B,B,B, |
[V:1]=c'4 ba |
[V:2][E=C][CE][EC] [EC][EC][CE] |
[V:3]A,A,A, A,B,=C |
[V:4]A,A,A, A,A,A, |
[V:1]^gee e3 |
[V:2][DE][ED][ED] [ED][ED][ED] |
[V:3]^G,G,G, G,G,G, |
[V:4]B,B,B, B,B,B, |
[V:1]=c'4 ba |
[V:2][=CE][EC][EC] [EC][EC][EC] |
[V:3]A,A,A, A,B,=C |
[V:4]A,A,A, A,A,A, |
[V:1]^ge'e' e'3 |
[V:2][ED][ED][ED] [ED][ED][ED] |
[V:3]^G,G,G, G,G,G, |
[V:4]B,B,B, B,B,B, |
[V:1]=c'4 ba |
[V:2][E=C][EC][EC] [EC][EC][EC] |
[V:3]A,A,A, A,B,=C |
[V:4]A,A,A, A,A,A, |
[V:1]^g4 e=f |
[V:2][DE][ED][ED] [E2D2]z |
[V:3]^G,G,G, G,2z |
[V:4]B,B,B, B,2z |
[V:1]^deB =d=cA |
[V:2]z6 |
[V:3]z6 |
[V:4]z6 |
[V:1]^GAE =FE^D |
[V:2]z6 |
[V:3]z6 |
[V:4]z6 |
[V:1]E2>=F2 E^D |
[V:2]B,A,B, =CB,A, |
[V:3]^G,F,G, A,G,F, |
[V:4]E,,E,,E,, E,,E,,E,, |
[V:1]E2>=F2 E^D |
[V:2]B,A,B, =CB,A, |
[V:3]^G,F,G, A,G,F, |
[V:4]E,,E,,E,, E,,E,,E,, |
[V:1]E2>=F2 E^D |
[V:2]B,A,B, =CB,A, |
[V:3]^G,F,G, A,G,F, |
[V:4]E,,E,,E,, E,,E,,E,, |
[V:1]E6- |
[V:2]B,2z4 |
[V:3]^G,2z4 |
[V:4]E,,2z4 |
[V:1]EG=F FAG |
[V:2]z6 |
[V:3]z6 |
[V:4]z6 |
[V:1]G6- |
[V:2]E6- |
[V:3]=C6- |
[V:4]=C,,=C,C, C,C,C, |
[V:1]G=cc cBA |
[V:2]EAA AG=F |
[V:3]C2z4 |
[V:4]=C,2z4 |
[V:1]G6- |
[V:2]E6- |
[V:3]=C6- |
[V:4]=C,,=C,C, C,C,C, |
[V:1]GAA AG=F |
[V:2]E=FF FED |
[V:3]C2z4 |
[V:4]=C,2z4 |
[V:1]E2>=F2 EF |
[V:2]=C2>D2 CD |
[V:3]=C,=CC CCC |
[V:4]=C,,=C,C, C,C,C, |
[V:1]G2z4 |
[V:2]E2z4 |
[V:3]=C2z4 |
[V:4]=C,2z4 |
[V:1]E2>D2 E=F |
[V:2]=C2>B,2 CD |
[V:3]G,G,G, G,G,G, |
[V:4]=C,,3 G,,3 |
[V:1]E3 D3 |
[V:2]=C3 B,3 |
[V:3]G,G,G, G,G,G, |
[V:4]=C,3 G,,3 |
[V:1]=C2>B,2 CD |
[V:2]A,2>^G,2 A,B, |
[V:3]E,E,E, E,E,E, |
[V:4]A,,3 E,3 |
[V:1]=C3 B,3 |
[V:2]A,3 ^G,2E |
[V:3]E,E,E, E,E,E, |
[V:4]A,,3 E,,3 |
[V:1]A,^G,A, =CB,A, |
[V:2]E3 ^D3 |
[V:3]=F,6 |
[V:4]=F,,6 |
[V:1]^G,2z3 e |
[V:2]E2z4 |
[V:3]E,2z4 |
[V:4]E,,2z4 |
[V:1]cAe dBe |
[V:2]A2z B2z |
[V:3]E2z E2z |
[V:4]A,2z ^G,2z |
[V:1]cAf e2C |
[V:2]A2d c2C |
[V:3]E2z3 C |
[V:4]A,2z3 C, |
[V:1]Dff ^Gd'd' |
[V:2]Ddd d^gg |
[V:3]D2z B,2z |
[V:4]D,2z E,2z |
[V:1]Ac'c' df'f' |
[V:2]caa fd'd' |
[V:3]A,2z D2z |
[V:4]A,2z D,2z |
[V:1]e3 b3 |
[V:2]e3 ^g3 |
[V:3]EEE EEE |
[V:4]E,E,E, E,E,E, |
[V:1]a2z3 e |
[V:2]a2z3 A, |
[V:3]A,2z3 E, |
[V:4]A,,2z3 C, |
[V:1]edc BBB |
[V:2]A,6 |
[V:3]F,6 |
[V:4]D,3 ^D,3 |
[V:1]BcB Bee |
[V:2]^G,4 A,B, |
[V:3]^G,4 E,E, |
[V:4]E,4 C,C, |
[V:1]edc cBA |
[V:2]A,3 D3 |
[V:3]F,3 ^G,3 |
[V:4]D,3 E,3 |
[V:1]A4 ee |
[V:2]C4 A,A, |
[V:3]A,4 E,E, |
[V:4]A,4 C,C, |
[V:1]edc BBB |
[V:2]A,6 |
[V:3]F,6 |
[V:4]D,3 ^D,3 |
[V:1]BcB Bee |
[V:2]^G,4 A,B, |
[V:3]^G,4 E,E, |
[V:4]E,4 C,C, |
[V:1]edc cBA |
[V:2]A,3 D3 |
[V:3]F,3 ^G,3 |
[V:4]D,3 E,3 |
[V:1]A4 B^G |
[V:2]C4 DB, |
[V:3]A,A,A, A,A,A, |
[V:4]A,,A,,A,, A,,A,,A,, |
[V:1]A4 dB |
[V:2]C4 FD |
[V:3]A,A,A, A,A,A, |
[V:4]A,,A,,A,, A,,A,,A,, |
[V:1]Aec AEC |
[V:2]C2z4 |
[V:3]A,2z4 |
[V:4]A,,2z4 |
[V:1]A,2z3 e |
[V:2][A2C2E2]z4 |
[V:3]E2z4 |
[V:4]A,,2z4 |
[V:1]cAe dBe |
[V:2]A,2z B,2z |
[V:3]E2z E2z |
[V:4]A,2z ^G,2z |
[V:1]cAf e2f |
[V:2]A,2D C2D |
[V:3]E2z4 |
[V:4]A,6 |
[V:1]ged ceB |
[V:2]E6- |
[V:3]C6- |
[V:4]^A,6- |
[V:1]^AcG F2e |
[V:2]E3 F3 |
[V:3]C6 |
[V:4]A,6 |
[V:1]dBf ecf |
[V:2]F2z F2z |
[V:3]B,2z ^A,2z |
[V:4]B,2z ^A,2z |
[V:1]dBg f2^g |
[V:2]F2E D2E |
[V:3]B,2z4 |
[V:4]B,6 |
[V:1]afe ^dfc |
[V:2]F6- |
[V:3]^D6- |
[V:4]^B,6- |
[V:1]^B^dA ^G2f |
[V:2]F3 ^G3 |
[V:3]D6 |
[V:4]^B6 |
[V:1]ea^g g3- |
[V:2]^G4 GG |
[V:3]E4 EE |
[V:4]C4 CC |
[V:1]ga^g g3- |
[V:2]^B4 BB |
[V:3]F4 FF |
[V:4]^D4 DD |
[V:1]ga^g g3- |
[V:2]c4 cc |
[V:3]^G4 GG |
[V:4]E4 EE |
[V:1]gc'b b3- |
[V:2]d4 dd |
[V:3]^G4 GG |
[V:4]E4 EE |
[V:1]bba a3- |
[V:2]c4 cc |
[V:3]A4 AA |
[V:4]E4 EE |
[V:1]aa^g g3- |
[V:2]c4 cc |
[V:3]^G4 GG |
[V:4]^E4 EE |
[V:1]g^gf f3- |
[V:2]c4 cc |
[V:3]A4 AA |
[V:4]F4 FF |
[V:1]fgf f3- |
[V:2]c4 cc |
[V:3]^A4 AA |
[V:4]E4 EE |
[V:1]fgf f3- |
[V:2]B4 BB |
[V:3]F4 FF |
[V:4]D4 DD |
[V:1]fgf f3- |
[V:2]^A4 AA |
[V:3]E4 EE |
[V:4]C4 CC |
[V:1]fgf f3- |
[V:2]B4 BB |
[V:3]D4 DD |
[V:4]B,4 B,B, |
[V:1]f^ed' d'c'b |
[V:2]B3 ^E3 |
[V:3]D3 B,3 |
[V:4]G,G,G, G,G,G, |
[V:1]^ac'f gf^e |
[V:2]F2z4 |
[V:3]C2z4 |
[V:4]F,2z4 |
[V:1]fce dcB |
[V:2]z6 |
[V:3]z6 |
[V:4]z6 |
[V:1]^AcF GFE |
[V:2]z2F GFE |
[V:3]z2F GFE |
[V:4]z2F, G,F,E, |
[V:1]Dff Egg |
[V:2]DBB BBB |
[V:3]D2z E2z |
[V:4]D,2z E,2z |
[V:1]F3 c3 |
[V:2]BBB ^AAA |
[V:3]DDD EEE |
[V:4]F,F,F, F,F,F, |
[V:1]bfd gec |
[V:2]B2z B2z |
[V:3]D2z E2z |
[V:4]D,2z E,2z |
[V:1]F3 c3 |
[V:2]BBB ^AAA |
[V:3]DDD EEE |
[V:4]F,F,F, F,F,F, |
[V:1]B2z3 f |
[V:2]B2z4 |
[V:3]D2z4 |
[V:4]B,,2z4 |
[V:1]dBf ecf |
[V:2]B2z c2z |
[V:3]F2z F2z |
[V:4]B,2z ^A,2z |
[V:1]dBg f2z |
[V:2]B2e ddd |
[V:3]F4 FF |
[V:4]B,4 B,B, |
[V:1]^dB=c' bz2 |
[V:2][^d4F4] [dF][dF] |
[V:3]B4 BB |
[V:4]A,4 A,A, |
[V:1]eB=c' bz2 |
[V:2][E4e4] [eE][eE] |
[V:3]B4 BB |
[V:4]G,4 G,G, |
[V:1]cAb az2 |
[V:2][c4E4] [cE][Ec] |
[V:3]A4 AA |
[V:4]G,4 G,G, |
[V:1]dAb az2 |
[V:2][d4D4] [dD][dD] |
[V:3]A4 AA |
[V:4]F,4 F,F, |
[V:1]cAb az2 |
[V:2][c4G4] [Gc][cG] |
[V:3]A4 AA |
[V:4]E,4 E,E, |
[V:1]dA_b az2 |
[V:2][d4=F4] [dF][dF] |
[V:3]A4 AA |
[V:4]=F,4 F,F, |
[V:1]cA_b az2 |
[V:2][G4c4] [cG][cG] |
[V:3]A4 AA |
[V:4]E,4 E,E, |
[V:1]=fae fad |
[V:2][d2=F2]z4 |
[V:3]A2z4 |
[V:4]D,2z4 |
[V:1]ceA _BA^G |
[V:2]z6 |
[V:3]z6 |
[V:4]z6 |
[V:1]A_BE =FAD |
[V:2]A_BE =FAD |
[V:3]A_BE =FAD |
[V:4]A,_B,E, =F,A,D, |
[V:1]CEA, _B,A,^G, |
[V:2]CEA, _B,A,^G, |
[V:3]CEA, _B,A,^G, |
[V:4]C,E,A,, _B,,A,,^G,, |
[V:1]A,CE Ace |
[V:2]A,CE AEC |
[V:3]A,CE AEC |
[V:4]A,,C,E, A,E,C, |
[V:1]a2z3 A |
[V:2]A,2z4 |
[V:3]A,2z4 |
[V:4]A,,2z4 |
[V:1]FDA GEA |
[V:2]D2z E2z |
[V:3]A,2z A,2z |
[V:4]D,2z C,2z |
[V:1]FDB A2d |
[V:2]D2G F3 |
[V:3]A,2z3 B, |
[V:4]D,2z3 B, |
[V:1]dcB ADB |
[V:2]D6 |
[V:3]B,A,G, F,2G, |
[V:4]B,A,G, F,2G, |
[V:1]A2G F2a |
[V:2]CDE F2z |
[V:3]A,B,C D2z |
[V:4]A,B,C D2z |
[V:1]fda gea |
[V:2]A2z A2z |
[V:3]D2z E2z |
[V:4]D2z C2z |
[V:1]fdb a2d' |
[V:2]A2G F2B |
[V:3]D2z4 |
[V:4]D2z4 |
[V:1]d'c'b ad=c' |
[V:2]BAG FDA |
[V:3]z6 |
[V:4]z6 |
[V:1]=c'ba ^gee' |
[V:2]AGF E2c |
[V:3]F2B B2z |
[V:4]^D,3 E,2z |
[V:1]e'd'c' bed' |
[V:2]cBA ^GEB |
[V:3]z6 |
[V:4]z6 |
[V:1]d'c'b ^aff' |
[V:2]BA^G F2d |
[V:3]^G2c c2z |
[V:4]^E,3 F,2z |
[V:1]f'e'd' c'fe' |
[V:2]dcB ^AFA |
[V:3]z6 |
[V:4]z6 |
[V:1]d'f'c' bd'a |
[V:2]B2c d2z |
[V:3]z4 z^D |
[V:4]z6 |
[V:1]gbf egd |
[V:2]z4 z^G |
[V:3]E2F G2z |
[V:4]z6 |
[V:1]ce'b ac'g |
[V:2]A2B c2z |
[V:3]z4 zC |
[V:4]z6 |
[V:1]fae dfc |
[V:2]z4 zF |
[V:3]D2E F2z |
[V:4]z6 |
[V:1]Bd'a gbf |
[V:2]G2A B2A |
[V:3]z6 |
[V:4]z6 |
[V:1]egd ceG |
[V:2]G2^G A2=G |
[V:3]z4 zG |
[V:4]z4 zG, |
[V:1]FAD CEA, |
[V:2]FAD CEA, |
[V:3]FAD CEA, |
[V:4]F,A,D, C,E,A,, |
[V:1]DFD B,D^G, |
[V:2]DFD B,D^G, |
[V:3]DFD B,D^G, |
[V:4]D,F,D, B,,D,^G,, |
[V:1]A,CE FD^G |
[V:2]A,2C D2B, |
[V:3]A,3 A,2D |
[V:4]A,,6- |
[V:1]ACE FD^G |
[V:2]A,2C D2B, |
[V:3]C2A, A,2D |
[V:4]A,,6- |
[V:1]A6- |
[V:2]A,2z4 |
[V:3]C2z4 |
[V:4]A,,2z4 |
[V:1]AB^G AB=G |
[V:2]z6 |
[V:3]z6 |
[V:4]z6 |
[V:1]FDA GEA |
[V:2]D2z E2z |
[V:3]A,2z A,2z |
[V:4]D,2z C,2z |
[V:1]FDB A2z |
[V:2]D2G F2z |
[V:3]A,2z3 B |
[V:4]D,2z3 G, |
[V:1]z4 zb |
[V:2]z4 zg |
[V:3]AFB A2z |
[V:4]F,D,G, F,2z |
[V:1]az4 d' |
[V:2]fz4 b |
[V:3]z2B Az2 |
[V:4]z2G, F,z2 |
[V:1]=c'z4 c' |
[V:2]az4 a |
[V:3]z2B Az2 |
[V:4]z2G Fz2 |
[V:1]bz4 b |
[V:2]gz4 g |
[V:3]z2F Gz2 |
[V:4]z2=C B,z2 |
[V:1]az4 a |
[V:2]fz4 f |
[V:3]z2G Fz2 |
[V:4]z2E ^Dz2 |
[V:1]gz4 a |
[V:2]ez4 f |
[V:3]z2^D Ez2 |
[V:4]z2A, G,z2 |
[V:1]gz4 g |
[V:2]ez4 e |
[V:3]z2F Ez2 |
[V:4]z2D Cz2 |
[V:1]fz4 a |
[V:2]dz4 D |
[V:3]z2C DzA, |
[V:4]z2G, F,zF, |
[V:1]agf eee |
[V:2]D6 |
[V:3]B,6 |
[V:4]G,3 ^G,3 |
[V:1]efe eaa |
[V:2]C4 DD |
[V:3]C4 A,A, |
[V:4]A,4 F,F, |
[V:1]agf eee |
[V:2]D6 |
[V:3]B,6 |
[V:4]G,3 ^G,3 |
[V:1]efe e3- |
[V:2]C4 cc |
[V:3]A,4 EE |
[V:4]A,4 A,A, |
[V:1]eba a3- |
[V:2]c4 cc |
[V:3]E4 EE |
[V:4]G,4 G,G, |
[V:1]aba a3- |
[V:2]d4 dd |
[V:3]D4 DD |
[V:4]F,4 F,F, |
[V:1]aba a3 |
[V:2]c4 BA |
[V:3]G4 GG |
[V:4]E,4 E,E, |
[V:1]=f'4 e'd' |
[V:2]d[A=F][FA] [AF][AF][FA] |
[V:3]=FDD DEF |
[V:4]D,D,D, D,D,D, |
[V:1]c'a'a' a'3 |
[V:2][AG][AG][AG] [AG][AG][AG] |
[V:3]CCC CCC |
[V:4]E,E,E, E,E,E, |
[V:1]=f'4 e'd' |
[V:2][A=F][AF][AF] [AF][AF][FA] |
[V:3]DDD DE=F |
[V:4]D,D,D, D,D,D, |
[V:1]c'aa a2z |
[V:2][AG][AG][AG] [AG][AG][GA] |
[V:3]CCC CCC |
[V:4]E,E,E, E,E,E, |
[V:1]=f4 ed |
[V:2][A=F][AF][AF] [AF][AF][AF] |
[V:3]DDD DE=F |
[V:4]D,D,D, D,D,D, |
[V:1]caa a3 |
[V:2][GA][AG][AG] [AG][AG][AG] |
[V:3]CCC CCC |
[V:4]E,E,E, E,E,E, |
[V:1]=f4 ed |
[V:2][=FA][AF][AF] [FA][AF][FA] |
[V:3]DDD DE=F |
[V:4]D,D,D, D,D,D, |
[V:1]c4 a_b |
[V:2][GA][AG][AG] [A2G2]z |
[V:3]EEE E2z |
[V:4]E,E,E, E,2z |
[V:1]^gae =g=fd |
[V:2]z6 |
[V:3]z6 |
[V:4]z6 |
[V:1]cdA _BA^G |
[V:2]z6 |
[V:3]z6 |
[V:4]z6 |
[V:1]A2>_B2 A^G |
[V:2]EDE =FED |
[V:3]CB,C DCB, |
[V:4]A,,A,,A,, A,,A,,A,, |
[V:1]A2>_B2 A^G |
[V:2]EDE =FED |
[V:3]CB,C DCB, |
[V:4]A,,A,,A,, A,,A,,A,, |
[V:1]A2>_B2 A^G |
[V:2]EDE =FED |
[V:3]CB,C DCB, |
[V:4]A,,A,,A,, A,,A,,A,, |
[V:1]A6- |
[V:2]E2z4 |
[V:3]C2z4 |
[V:4]A,,2z4 |
[V:1]A=c_B Bdc |
[V:2]z6 |
[V:3]z6 |
[V:4]z6 |
[V:1]=c6- |
[V:2]A6- |
[V:3]=F6- |
[V:4]=F,,=F,F, F,F,F, |
[V:1]c=ff fed |
[V:2]Add d=c_B |
[V:3]F2z4 |
[V:4]=F,2z4 |
[V:1]=c6- |
[V:2]A6- |
[V:3]=F6- |
[V:4]=F,,=F,F, F,F,F, |
[V:1]cdd d=c_B |
[V:2]A_BB BAG |
[V:3]F2z4 |
[V:4]=F,2z4 |
[V:1]A2>_B2 AB |
[V:2]=F2>G2 FG |
[V:3]=F,=FF FFF |
[V:4]=F,,=F,F, F,F,F, |
[V:1]=c2z4 |
[V:2]A2z4 |
[V:3]=F2z4 |
[V:4]=F,2z4 |
[V:1]A2>G2 A_B |
[V:2]=F2>E2 FG |
[V:3]=CCC CCC |
[V:4]=F,,3 =C,3 |
[V:1]A3 G3 |
[V:2]=F3 E3 |
[V:3]=CCC CCC |
[V:4]=F,3 =C,3 |
[V:1]=F2>E2 FG |
[V:2]D2>C2 DE |
[V:3]A,A,A, A,A,A, |
[V:4]D,3 A,,3 |
[V:1]=F3 E3 |
[V:2]D3 C2A, |
[V:3]A,A,A, A,A,A, |
[V:4]D,,3 A,,3 |
[V:1]DCD =FED |
[V:2]A,3 ^G,3 |
[V:3]=F,3 D,3 |
[V:4]_B,,6 |
[V:1]C2z3 a |
[V:2]A,2z4 |
[V:3]E,2z4 |
[V:4]A,,2z4 |
[V:1]fda gea |
[V:2]d2z e2z |
[V:3]A2z A2z |
[V:4]D2z C2z |
[V:1]fdb a2F |
[V:2]d2g f2F |
[V:3]A2z3 F |
[V:4]D2z3 F, |
[V:1]Gbb Cgg |
[V:2]Ggg Gcc |
[V:3]G2z E2z |
[V:4]G,2z A,2z |
[V:1]Dff Gbb |
[V:2]Fdd Bgg |
[V:3]D2z G2z |
[V:4]D2z G,2z |
[V:1]A3 e3 |
[V:2]A3 c3 |
[V:3]AAA AAA |
[V:4]A,A,A, A,A,A, |
[V:1]d2z3 a |
[V:2]d2z3 D |
[V:3]D2z3 A, |
[V:4]D,2z3 F, |
[V:1]agf eee |
[V:2]D6 |
[V:3]B,6 |
[V:4]G,3 ^G,3 |
[V:1]efe eaa |
[V:2]C4 DE |
[V:3]C4 A,A, |
[V:4]A,4 F,F, |
[V:1]agf fed |
[V:2]D3 G3 |
[V:3]B,3 C3 |
[V:4]G,3 A,3 |
[V:1]d4 aa |
[V:2]F4 DD |
[V:3]D4 A,A, |
[V:4]D,4 F,F, |
[V:1]agf eee |
[V:2]D6 |
[V:3]B,6 |
[V:4]G,3 ^G,3 |
[V:1]efe eaa |
[V:2]C4 DE |
[V:3]C4 A,A, |
[V:4]A,4 F,F, |
[V:1]agf fed |
[V:2]D3 G3 |
[V:3]B,3 C3 |
[V:4]G,3 A,3 |
[V:1]d4 ec |
[V:2]F4 GE |
[V:3]DDD DDD |
[V:4]D,D,D, D,D,D, |
[V:1]d4 ge |
[V:2]F4 BG |
[V:3]DDD DDD |
[V:4]D,D,D, D,D,D, |
[V:1]daf dAF |
[V:2]F2z4 |
[V:3]D2z4 |
[V:4]D,2z4 |
[V:1]D2z4 |]
[V:2][f2D2A2]z4 |]
[V:3][D2D,2A,2]z4 |]
[V:4]D,,2z4 |]

